X:4002
T:Dargason
T:Sedauny; Sedany
R:Jig
C:Trad.
O:Wales
M:6/8
L:1/8
Q:1/8=180
K:D
"D"F2D D2D|F2G A>GF|"Em"G2E E2E|"A7"G2A B>AG|
"D"F2D D2D|"Bm"d2d c>BA|"Em"G2E E2E|"A7"e2d c>BA:|

